X:1
T:Stair, CM
T:Stair, CM
T:Joseph Perry Holbrook, 1880
T:Public Domain Courtesy of the Cyber Hymnal™
C:Joseph Perry Holbrook, 1880
Z:Public Domain
Z:Courtesy of the Cyber Hymnal™
%%score ( 1 2 ) ( 3 4 )
L:1/8
Q:1/4=100
M:2/4
K:Ab
V:1 treble 
V:2 treble 
V:3 bass 
V:4 bass 
V:1
 [Ec]2 [DB]>[CA] | [CE]3 E | [EA]2 [EB]2 | [Ec]3 [Ac] | [GB]2 [Ge]2 | G2 z F x | E3 [EB] | %7
 [Ee]2 [EG]2 | [EA]2 [Ed]2 | [Ec]3 [EB] [EB]3 E | A3 G | B>A c>A | E3 [EB] | [Ec]2 [Ae]2 | %14
 [FA]2 [GB]2 | [EA]4 |] x4 |] %17
V:2
 x4 | x3 E | x4 | x4 | x4 | E3 =D2 | E3 x | x4 | x4 | x7 E | A3 G | (B>A) (c>A) | E3 x | x4 | x4 | %15
 x4 |] x4 |] %17
V:3
 [A,,A,]2 [A,,A,]>[A,,A,] | A,3 [A,,C] | [C,A,]2 [E,G,]2 | A,3 A, | [E,B,]2 [E,B,]2 | %5
 [B,,B,]2 [B,,A,]2 x | [E,G,]3 [E,G,] | [E,G,]2 [_D,B,]2 | [C,A,]2 [B,,G,]2 | [A,,A,]3 [E,G,] x4 | %10
 [E,G,]3 E, | A,3 G, | B,>A, C>A, | E,3 [E,G,] | [A,,A,]2 [C,A,]2 | [F,C]2 [E,D]2 |] [A,,C]4 |] %17
V:4
 x4 | A,3 x | x4 | A,3 A, | x4 | x5 | x4 | x4 | x4 | x8 | x3 E, | A,3 G, | (B,>A,) (C>A,) | E,3 x | %14
 x4 | x4 |] x4 |] %17

